X: 7676
T: Coleman's Cross
R: reel
M: 4/4
K: Gmajor
|:edBA GGBE|DEGB AEEF|GEED BEGA|BABd efgf|
edBA GGGE|DEGB AEEE|GGGB AFGA|BABd eeef:|
gfga gfed|bdde dBdf|ggef gbeg|fBdf eeef|
gbgb fafb|gfed gdBc|dBAF GGGA|BABd eee2||
GGGA GFED|BDDE DBdf|ggaf gfed|bdgd eedf|
gbde fadb|gfed edBc|dddB AFGA|BGFD E4||

